!!!OTL: Das Schwabentoechterlein.
!!!OTL-incipit: Barmherziger gerechter Gott
!!!ARE: Europa, Mitteleuropa, Deutschland
!!!YOR: 4, S. 50
!!    1646 Handschrift Kloster Seeon
!!!SCT: Q0073D
!!!YEM: Copyright 1995, estate of Helmut Schaffrath.
**kern	**text
*ICvox	*
!! Mixed meters:  2/2; 3/2
*M2/2	*
*k[b-]	*
*d:	*
{4a	Barmherʒi-
=1	=1
4b-	.
4b-	.
4cc	-ger
4cc	ge-
=2	=2
*M3/2	*
4dd	-rechter
4dd	.
2a	Gott
4r}	.
{4a	vns
=3	=3
*M2/2	*
4dd	dankhbar
4dd	.
4dd	ʒu
4a	be-
=4	=4
*M3/2	*
2dd	-weiſen
2cc	.
4r}	.
{4a	ver-
=5	=5
*M2/2	*
4b-	-leihe
4b-	.
4a	vns
4a	dein
=6	=6
*M3/2	*
4g	Göttlich
4g	.
2d	Gnad
4r}	.
{4d	dʒ
=7	=7
*M2/2	*
4f	wir
4g	dich
4a	herʒlich
4b-	.
=8	=8
*M3/2	*
2g	prey-
2f	-ſen
4r}	.
{4a	für
=9	=9
*M2/2	*
4b-	dein
4a	vnausſprechlich
4g	.
4f	.
=10	=10
4d	.
4e	wol-
0d;}	-that.
==	==
!!!AGN: Ballade, Weglaufen, Schwangerschaft, Rueckkehr; geistlich
!! Geistliche Kontrafaktur. Schlussnote rhythmisch korrigiert.
!!!ONB: ESAC (Essen Associative Code) Database: BALLADE
!!!AMT: irregular
!!!AIN: vox
!!!EED: Helmut Schaffrath
!!!EEV: 1.0
!!!source: Deutsche Volkslieder mit ihren Melodien. Herausgegeben vom Deutschen Volksliedarchiv. Vierter Band. Berlin 1959.
!!!page: 50
!!!ENC: Anna Maria Matuszewska
!!!EEV: 2025/02/21
*-	*-
